X:4
T:Bank of Ireland
M:4/4
L:1/8
R:Reel
S:Cherish the Ladies: At Home
K:Dmix
AB|c2AB cBAG|EGDG EGAB|c2AB cBAG|Add^c dfed|
c2AB cBAG|EGDG EGAB|c2AB cBAG|Add^c d2:|
de|f3d e2fe|dfed ^cAA2|f3d e2fg|afge d2^cd|
eaa2 efge|dfed cAGE| Add^c defg|afge d2:|
